humanity-icon-theme/Humanity/apps/24/web-browser.svg

<?xml version="1.0" encoding="UTF-8" standalone="no"?>
<!-- Created with Inkscape (http://www.inkscape.org/) -->

<svg
   xmlns:svg="http://www.w3.org/2000/svg"
   xmlns="http://www.w3.org/2000/svg"
   xmlns:xlink="http://www.w3.org/1999/xlink"
   version="1.0"
   width="24"
   height="24"
   id="svg2">
  <defs
     id="defs4">
    <linearGradient
       id="linearGradient8838">
      <stop
         id="stop8840"
         style="stop-color:black;stop-opacity:1"
         offset="0" />
      <stop
         id="stop8842"
         style="stop-color:black;stop-opacity:0"
         offset="1" />
    </linearGradient>
    <radialGradient
       cx="62.625"
       cy="4.625"
       r="10.625"
       fx="62.625"
       fy="4.625"
       id="radialGradient3868"
       xlink:href="#linearGradient8838"
       gradientUnits="userSpaceOnUse"
       gradientTransform="matrix(1,0,0,0.341176,0,3.047059)" />
    <linearGradient
       id="linearGradient8647">
      <stop
         id="stop8649"
         style="stop-color:#8fb1dc;stop-opacity:1"
         offset="0" />
      <stop
         id="stop8651"
         style="stop-color:#3465a4;stop-opacity:1"
         offset="1" />
    </linearGradient>
    <radialGradient
       cx="12.465816"
       cy="5.3052077"
       r="10.499999"
       fx="12.465816"
       fy="5.3052077"
       id="radialGradient6407"
       xlink:href="#linearGradient8647"
       gradientUnits="userSpaceOnUse"
       gradientTransform="matrix(1.2145383,0,0,1,-2.6743948,-1.5333244e-6)" />
    <linearGradient
       id="linearGradient12067-267-678-820-366-564">
      <stop
         id="stop14112"
         style="stop-color:#557695;stop-opacity:1"
         offset="0" />
      <stop
         id="stop14114"
         style="stop-color:#15395c;stop-opacity:1"
         offset="1" />
    </linearGradient>
    <linearGradient
       id="linearGradient4873">
      <stop
         id="stop4875"
         style="stop-color:white;stop-opacity:1"
         offset="0" />
      <stop
         id="stop4877"
         style="stop-color:white;stop-opacity:0"
         offset="1" />
    </linearGradient>
    <linearGradient
       x1="63.397362"
       y1="-12.742159"
       x2="63.397362"
       y2="-0.62969548"
       id="linearGradient5158"
       xlink:href="#linearGradient4873"
       gradientUnits="userSpaceOnUse"
       gradientTransform="matrix(1.0299253,0,0,1.0299249,-51.595947,15.115898)" />
    <linearGradient
       id="linearGradient4845">
      <stop
         id="stop4847"
         style="stop-color:white;stop-opacity:1"
         offset="0" />
      <stop
         id="stop4849"
         style="stop-color:#b6b6b6;stop-opacity:1"
         offset="1" />
    </linearGradient>
    <radialGradient
       cx="17.81411"
       cy="24.149399"
       r="9.125"
       fx="17.81411"
       fy="24.149399"
       id="radialGradient2414"
       xlink:href="#linearGradient4845"
       gradientUnits="userSpaceOnUse"
       gradientTransform="matrix(-1.4145272,0,1.5710418e-8,1.3558893,39.434171,-22.854018)" />
    <radialGradient
       cx="24.652573"
       cy="18.94449"
       r="8.6174498"
       fx="24.652485"
       fy="18.944481"
       id="radialGradient5163"
       xlink:href="#linearGradient12067-267-678-820-366-564"
       gradientUnits="userSpaceOnUse"
       gradientTransform="matrix(0.03689039,1.329898,-0.948854,0.0263227,29.15927,-26.640082)" />
  </defs>
  <g
     id="layer1">
    <path
       d="m 73.25,4.625 a 10.625,3.625 0 1 1 -21.25,0 10.625,3.625 0 1 1 21.25,0 z"
       transform="matrix(1.0823528,0,0,1.2906765,-55.816527,13.351919)"
       id="path2774"
       style="opacity:0.56043958;fill:url(#radialGradient3868);fill-opacity:1;fill-rule:evenodd;stroke:none;stroke-width:0.99999988;marker:none;visibility:visible;display:inline;overflow:visible" />
    <path
       d="m 12.457962,1.499974 c -5.5190682,0 -9.9921712,4.473101 -9.9921712,9.992171 0,5.519069 4.473103,10.007882 9.9921712,10.007881 5.519068,0 10.007888,-4.488812 10.007878,-10.007881 0,-5.51907 -4.48881,-9.992171 -10.007878,-9.992171 z"
       id="path2555"
       style="fill:url(#radialGradient6407);fill-opacity:1;stroke:#204a87;stroke-width:0.99994898;stroke-linecap:round;stroke-linejoin:round;stroke-miterlimit:4;stroke-opacity:1;stroke-dasharray:none;stroke-dashoffset:0" />
    <path
       d="M 9.0535187,13.689733 C 8.8268901,13.111074 7.9962482,12.759925 7.8019516,12.346837 7.1321627,12.346977 6.5813097,11.673309 6.1519693,12.413837 5.3233966,12.753456 5.3625519,11.56062 4.923094,11.475421 4.9523767,10.977886 4.9277279,10.45415 4.4313038,11.085642 3.423552,11.21321 3.9127742,9.4890757 4.7828297,9.5832054 5.3206446,9.2278503 6.0236485,10.364004 5.9047119,9.5019062 6.401443,8.7267325 6.9803362,7.9843606 7.7803263,7.5097821 8.183931,7.4620444 8.9337165,6.861981 8.0743277,6.8990647 7.1748414,6.7224013 9.1724999,6.7762783 9.2097536,6.2477669 9.0473724,5.772946 8.8046995,5.3766152 8.3074185,5.3241563 7.9463597,4.4008199 7.519287,5.7665441 7.1919504,6.0656325 6.8867139,6.7287199 6.5958526,5.6206098 6.1537957,5.6450213 5.9577157,4.9108528 8.1265823,4.6200811 7.0151588,3.9386044 6.3192785,4.4306922 5.6094633,4.9339821 5.0977231,5.6612594 3.9327225,7.1434437 3.147124,8.9407108 2.9478638,10.821496 c 0.4338709,1.088126 1.8948602,1.06885 2.6089448,1.880898 1.0964443,0.34388 -0.5544387,1.521252 0.03335,2.333843 0.3193296,0.907766 1.5512383,1.385441 1.4257293,2.460285 0.1594849,0.743201 -0.3184823,2.074628 0.8533037,2.174178 0.6326898,-0.0983 0.8920515,-0.976576 1.346058,-1.304833 -0.019237,-0.750198 0.5288876,-1.160085 0.9955824,-1.505552 0.076,-0.744347 0.298291,-1.495159 0.487484,-2.147013 C 10.420726,14.056492 9.5259207,14.1305 9.0534226,13.689623 M 13.625351,2.4984438 c -1.069741,-0.6725149 -2.364915,-0.2354853 -3.475035,0.065324 -1.061158,0.5476364 1.006013,0.699584 0.2827,1.4785223 -0.4380827,0.6542972 0.608082,1.483415 0.904297,0.539084 0.416496,-0.7612809 1.551706,-0.3237062 1.938275,-1.1725867 0.148503,-0.2890687 0.210552,-0.614228 0.349768,-0.9103979 m 8.204798,7.5380265 c -0.42053,0.541702 -1.473539,-0.7965876 -1.584765,-0.252897 0.06333,0.365101 0.597728,0.930494 0.856691,0.390833 0.657155,0.874247 -0.824837,1.678278 -1.261904,1.91747 -0.298525,-0.666008 -0.462205,-1.39317 -0.87973,-1.998213 -0.362909,-0.6549149 -0.704147,-0.06728 -0.201935,0.302195 0.310391,0.845043 0.537437,1.941407 1.66091,1.83266 0.342127,1.076766 -1.263569,1.707499 -1.030103,2.808278 0.278977,0.824283 -0.112568,1.492968 -0.780045,1.899153 0.261418,0.639568 -0.367153,1.70173 -1.099006,1.909598 -0.453202,0.285551 -1.020494,0.250008 -0.948613,-0.471887 -0.310577,-1.041218 -0.547224,-2.069906 -0.37045,-3.17454 -0.177606,-0.658274 -0.322638,-1.466254 -0.530836,-1.956311 -0.793986,-0.694317 -1.788436,0.675639 -2.281693,-0.340494 -0.714696,-0.613264 -0.863587,-1.489647 -0.513297,-2.329805 0.243934,-0.9710882 1.041078,-1.9031991 2.062945,-2.0737518 0.900887,-0.3988744 1.418743,1.0408214 2.22359,0.5119402 0.419269,0.3842294 1.921822,-0.026037 1.167674,-0.469923 C 17.704268,8.4460923 17.303017,7.5192008 17.018627,8.2927676 16.788466,8.2154581 16.426634,7.0360795 16.354178,7.5990744 16.874865,7.9024075 15.958606,8.5045215 16.209753,7.8081622 15.515042,6.860251 14.697444,7.9470473 14.262909,8.4680606 13.326155,8.3954694 13.656803,7.12492 14.475862,7.2537012 13.836612,6.5386001 14.87771,6.6804767 15.115998,6.0883922 15.484632,5.524878 15.730255,5.7131073 16.23909,5.9731611 c 0.413915,-0.3295676 1.12516,-0.9612492 0.528221,-1.1925182 0.316308,-0.991853 -0.658132,0.099168 -0.534814,0.5717324 -0.247491,0.5081466 -0.631361,-0.2667893 -1.002986,0.00201 -0.300322,-0.7289396 0.636388,-1.141577 1.084706,-1.5387127 0.512003,-0.1457227 1.677919,-0.043438 1.801961,0.3233336 -0.802854,0.00494 -0.250261,0.827495 0.183616,0.3167119 0.616029,-0.4268846 1.247378,0.9381665 1.73006,1.3735877 0.94575,1.2177999 1.568997,2.6832974 1.8003,4.2071072 z"
       id="path6566"
       style="fill:url(#radialGradient5163);fill-opacity:1;fill-rule:nonzero;stroke:none" />
    <path
       d="m 21.473026,11.49968 c 0,4.974819 -4.032961,9.007735 -9.007098,9.007735 -4.9745889,0 -9.0073229,-4.032961 -9.0073229,-9.007735 0,-4.9745881 4.032734,-9.0070954 9.0073229,-9.0070954 4.974137,0 9.007098,4.0325073 9.007098,9.0070954 l 0,0 z"
       id="path8655"
       style="opacity:0.4;fill:none;stroke:url(#linearGradient5158);stroke-width:1;stroke-miterlimit:4;stroke-opacity:1;stroke-dasharray:none" />
    <path
       d="m 13.633749,8.6693407 9.09499,8.8273313 -4.146245,0.133748 c 0,0 1.738748,3.61118 1.738748,3.61118 0.535,1.60497 -1.872498,2.206832 -2.273748,1.003106 0,0 -1.604998,-3.611181 -1.604998,-3.611181 L 13.5,21.776591 13.633749,8.6693407 z"
       id="path3970"
       style="fill:url(#radialGradient2414);fill-opacity:1;fill-rule:evenodd;stroke:#666;stroke-width:1.00000012;stroke-linecap:butt;stroke-linejoin:round;stroke-miterlimit:4;stroke-opacity:1;stroke-dasharray:none;stroke-dashoffset:0;marker:none;visibility:visible;display:inline;overflow:visible" />
    <path
       d="m 14.640322,11.059319 5.731044,5.525297 -3.30363,0.09366 c 0,0 2.117355,4.535206 2.117355,4.535206 0.347329,0.612775 -0.08254,0.977443 -0.291272,0.422235 0,0 -2.20671,-4.688679 -2.20671,-4.688679 l -2.129206,2.246955 0.08242,-8.134674 z"
       id="path4853"
       style="opacity:0.4;fill:none;stroke:white;stroke-width:1;stroke-linecap:butt;stroke-linejoin:miter;stroke-miterlimit:4;stroke-opacity:1;stroke-dasharray:none;stroke-dashoffset:0;marker:none;visibility:visible;display:inline;overflow:visible" />
  </g>
</svg>

<?xml version="1.0" encoding="UTF-8" standalone="no"?>
<!-- Created with Inkscape (http://www.inkscape.org/) -->
<svg id="svg2" xmlns="http://www.w3.org/2000/svg" height="24" width="24" version="1.0" xmlns:xlink="http://www.w3.org/1999/xlink">
 <defs id="defs4">
  <radialGradient id="radialGradient3868" gradientUnits="userSpaceOnUse" cy="4.625" cx="62.625" gradientTransform="matrix(1 0 0 .34118 0 3.0471)" r="10.625">
   <stop id="stop8840" offset="0"/>
   <stop id="stop8842" style="stop-opacity:0" offset="1"/>
  </radialGradient>
  <radialGradient id="radialGradient6407" gradientUnits="userSpaceOnUse" cy="5.3052" cx="12.466" gradientTransform="matrix(1.2145 0 0 1 -2.6744 -.0000015333)" r="10.5">
   <stop id="stop8649" style="stop-color:#8fb1dc" offset="0"/>
   <stop id="stop8651" style="stop-color:#3465a4" offset="1"/>
  </radialGradient>
  <linearGradient id="linearGradient5158" y2="-.62970" gradientUnits="userSpaceOnUse" x2="63.397" gradientTransform="matrix(1.0299 0 0 1.0299 -51.596 15.116)" y1="-12.742" x1="63.397">
   <stop id="stop4875" style="stop-color:#fff" offset="0"/>
   <stop id="stop4877" style="stop-color:#fff;stop-opacity:0" offset="1"/>
  </linearGradient>
  <radialGradient id="radialGradient2414" gradientUnits="userSpaceOnUse" cy="24.149" cx="17.814" gradientTransform="matrix(-1.4145 0 1.571e-8 1.3559 39.434 -22.854)" r="9.125">
   <stop id="stop4847" style="stop-color:#fff" offset="0"/>
   <stop id="stop4849" style="stop-color:#b6b6b6" offset="1"/>
  </radialGradient>
  <radialGradient id="radialGradient5163" fx="24.652" gradientUnits="userSpaceOnUse" cy="18.944" cx="24.653" gradientTransform="matrix(.036890 1.3299 -.94885 .026323 29.159 -26.64)" r="8.6174">
   <stop id="stop14112" style="stop-color:#557695" offset="0"/>
   <stop id="stop14114" style="stop-color:#15395c" offset="1"/>
  </radialGradient>
 </defs>
 <g id="layer1">
  <path id="path2774" style="opacity:.56044;fill-rule:evenodd;fill:url(#radialGradient3868)" d="m73.25 4.625a10.625 3.625 0 1 1 -21.25 0 10.625 3.625 0 1 1 21.25 0z" transform="matrix(1.0824 0 0 1.2907 -55.817 13.352)"/>
  <path id="path2555" style="stroke-linejoin:round;stroke:#204a87;stroke-linecap:round;stroke-width:.99995;fill:url(#radialGradient6407)" d="m12.458 1.5c-5.5191 0-9.9922 4.4731-9.9922 9.9922s4.4731 10.008 9.9922 10.008 10.008-4.4888 10.008-10.008c0-5.5191-4.4888-9.9922-10.008-9.9922z"/>
  <path id="path6566" style="fill:url(#radialGradient5163)" d="m9.0535 13.69c-0.2266-0.579-1.0573-0.93-1.2515-1.343-0.6698 0-1.2207-0.674-1.65 0.067-0.8286 0.339-0.7894-0.853-1.2289-0.939 0.0293-0.497 0.0046-1.021-0.4918-0.389-1.0077 0.127-0.5185-1.5969 0.3515-1.5028 0.5378-0.3553 1.2408 0.7808 1.1219-0.0813 0.4967-0.7752 1.0756-1.5175 1.8756-1.9921 0.4036-0.0478 1.1534-0.6478 0.294-0.6107-0.8995-0.1767 1.0982-0.1228 1.1355-0.6513-0.1624-0.4749-0.4051-0.8712-0.9024-0.9236-0.361-0.9234-0.7881 0.4423-1.1154 0.7414-0.3053 0.6631-0.5961-0.445-1.0382-0.4206-0.1961-0.7341 1.9728-1.0249 0.8614-1.7064-0.6959 0.4921-1.4057 0.9954-1.9175 1.7227-1.165 1.4821-1.9506 3.2794-2.1498 5.1597 0.43387 1.0881 1.8949 1.0688 2.6089 1.8809 1.0964 0.34388-0.55444 1.5213 0.03335 2.3338 0.31933 0.90777 1.5512 1.3854 1.4257 2.4603 0.15948 0.7432-0.31848 2.0746 0.8533 2.1742 0.63269-0.0983 0.89205-0.97658 1.3461-1.3048-0.019237-0.7502 0.52889-1.1601 0.99558-1.5056 0.076-0.74435 0.29829-1.4952 0.48748-2.147-0.277-0.657-1.1721-0.583-1.6446-1.023m4.5716-11.192c-1.0697-0.67251-2.3649-0.23549-3.475 0.065324-1.0612 0.54764 1.006 0.69958 0.2827 1.4785-0.43808 0.6543 0.60808 1.4834 0.9043 0.53908 0.4165-0.76128 1.5517-0.32371 1.9383-1.1726 0.1485-0.28907 0.21055-0.61423 0.34977-0.9104m8.2048 7.538c-0.42053 0.5417-1.4735-0.79659-1.5848-0.2529 0.06333 0.3651 0.59773 0.93049 0.85669 0.39083 0.65716 0.87425-0.82484 1.6783-1.2619 1.9175-0.29852-0.66601-0.4622-1.3932-0.87973-1.9982-0.36291-0.65491-0.70415-0.06728-0.20194 0.3022 0.31039 0.84504 0.53744 1.9414 1.6609 1.8327 0.34213 1.0768-1.2636 1.7075-1.0301 2.8083 0.27898 0.82428-0.11257 1.493-0.78004 1.8992 0.26142 0.63957-0.36715 1.7017-1.099 1.9096-0.4532 0.28555-1.0205 0.25001-0.94861-0.47189-0.31058-1.0412-0.54722-2.0699-0.37045-3.1745-0.17761-0.65827-0.32264-1.4663-0.53084-1.9563-0.79399-0.69432-1.7884 0.67564-2.2817-0.34049-0.7147-0.61326-0.86359-1.4896-0.5133-2.3298 0.24393-0.97109 1.0411-1.9032 2.0629-2.0738 0.90089-0.39887 1.4187 1.0408 2.2236 0.51194 0.41927 0.38423 1.9218-0.026037 1.1677-0.46992-0.616-0.0943-1.017-1.0212-1.301-0.2476-0.231-0.0773-0.592-1.2567-0.665-0.6937 0.521 0.3033-0.395 0.9054-0.144 0.2091-0.695-0.9479-1.513 0.1388-1.947 0.6599-0.937-0.0726-0.606-1.3432 0.213-1.2144-0.639-0.7151 0.402-0.5732 0.64-1.1653 0.369-0.5635 0.614-0.3753 1.123-0.1152 0.41392-0.32957 1.1252-0.96125 0.52822-1.1925 0.31631-0.99185-0.65813 0.099168-0.53481 0.57173-0.24749 0.50815-0.63136-0.26679-1.003 0.00201-0.30032-0.72894 0.63639-1.1416 1.0847-1.5387 0.512-0.14572 1.6779-0.043438 1.802 0.32333-0.80285 0.00494-0.25026 0.8275 0.18362 0.31671 0.61603-0.42688 1.2474 0.93817 1.7301 1.3736 0.94575 1.2178 1.569 2.6833 1.8003 4.2071z"/>
  <path id="path8655" style="opacity:.4;stroke:url(#linearGradient5158);fill:none" d="m21.473 11.5c0 4.9748-4.033 9.0077-9.0071 9.0077-4.9746 0-9.0073-4.033-9.0073-9.0077 0-4.9746 4.0327-9.0071 9.0073-9.0071 4.9741 0 9.0071 4.0325 9.0071 9.0071z"/>
  <path id="path3970" style="stroke-linejoin:round;fill-rule:evenodd;stroke:#666;fill:url(#radialGradient2414)" d="m13.634 8.6693 9.095 8.8273-4.1462 0.13375s1.7387 3.6112 1.7387 3.6112c0.535 1.605-1.8725 2.2068-2.2737 1.0031l-1.605-3.6112-2.943 3.143 0.134-13.108z"/>
  <path id="path4853" style="opacity:.4;stroke:#fff;fill:none" d="m14.64 11.059 5.731 5.5253-3.3036 0.09366s2.1174 4.5352 2.1174 4.5352c0.34733 0.61278-0.08254 0.97744-0.29127 0.42224 0 0-2.2067-4.6887-2.2067-4.6887l-2.1292 2.247 0.08242-8.1347z"/>
 </g>
</svg>
